X:24
T:Of She Goes. JBs.024
T:Off She Goes,aka. JBs.024
S:Jas.Blackshaw MS, 1837, N.Shropshire
Z:T.Weatherall 2006
M:6/8
L:1/8
Q:3/8=120
A:North Shropshire
R:Jig
K:C
E2GF2A|GABc3|E2GF2A|GFE D3|!
E2GF2A|GABc3|ege f2e|dcB â€œcr. in MS.â€c3:|!
|:ege c2e|dfd B2d|e2cf2d|dBG G2c|!
egec2e|dfd B2d|e2cf2d|dcBâ€cr. in MS.â€c3:|

